ressources/media/edit-find-replace.svg

<svg xmlns="http://www.w3.org/2000/svg" width="16" height="16" viewBox="0 0 16 16">
 <defs>
  <style id="current-color-scheme" type="text/css">
   .ColorScheme-Text { color:#404040; } .ColorScheme-Highlight { color:#5294e2; }
  </style>
 </defs>
 <path style="fill:currentColor" class="ColorScheme-Text" d="M 6.5 1.0039062 C 3.4711 1.0039062 1 3.4785062 1 6.5039062 C 1 7.5661063 1.28612 8.5670563 1.8125 9.4101562 L 3.28125 7.9394531 C 3.08793 7.5034331 3 7.0129531 3 6.5019531 C 3 4.5567531 4.5526 3.0019531 6.5 3.0019531 C 7.01218 3.0019531 7.46979 3.1205231 7.90625 3.3144531 L 8.65625 2.5644531 L 8.75 2.4726562 L 9.375 1.8164062 C 8.535 1.2984062 7.5558594 1.0039062 6.5058594 1.0039062 L 6.5 1.0039062 z M 11.611328 2.0019531 C 11.429282 2.0019531 11.248782 2.0734937 11.107422 2.2148438 L 9.7109375 3.6191406 L 12.382812 6.2929688 L 13.787109 4.8964844 C 14.069819 4.6137744 14.069819 4.1674856 13.787109 3.8847656 L 12.117188 2.2148438 C 11.975832 2.0734937 11.793374 2.0019531 11.611328 2.0019531 z M 8.75 4.5800781 L 2 11.330078 L 2 14.001953 L 4.671875 14.001953 L 11.423828 7.2519531 L 8.75 4.5800781 z M 11.125 9.6914062 L 9.6875 11.097656 L 13.3125 14.722656 C 14.27084 15.660696 15.67765 14.222646 14.71875 13.285156 L 11.125 9.6914062 z"/>
</svg>

<svg height="16" width="16" xmlns="http://www.w3.org/2000/svg"><path d="m6.5 1.004c-3.029 0-5.5 2.475-5.5 5.5 0 1.062.286 2.063.813 2.906l1.469-1.471c-.194-.436-.282-.926-.282-1.437 0-1.945 1.553-3.5 3.5-3.5a3.4 3.4 0 0 1 1.406.313l.75-.75.094-.092.625-.656c-.84-.518-1.819-.812-2.869-.812h-.006zm5.111.998a.71.71 0 0 0 -.504.213l-1.396 1.404 2.672 2.674 1.404-1.396a.71.71 0 0 0 0-1.012l-1.67-1.67c-.141-.141-.324-.213-.506-.213zm-2.861 2.578-6.75 6.75v2.672h2.672l6.752-6.75zm2.375 5.111-1.437 1.406 3.625 3.625c.958.938 2.365-.5 1.406-1.437z" fill="#404040"/></svg>
